X:968
T:John Naughton's
R:reel
H:Also played in Ddor
Z:id:hn-reel-968
M:C|
L:1/8
K:Edor
EFGA BE~E2 | GEBE GEDF | EFGA BABc |1 dBAG FDDF :|2 dBAG FDD2 ||
|: ~e3d BABd | edef gbaf | ~e3d BABc |1 dBAG FDD2 :|2 dBAG FDDF ||

